COLOR/action 16/16/symbols.svg

<svg height="16" width="16" xmlns="http://www.w3.org/2000/svg"><g fill-rule="evenodd" transform="translate(-351.01622 -107.04145)"><path d="m359.02662 107.54226c-1.99278.0181-3.99627.33923-6.0104.9087.8681 2.27813.0681 5.99094.56264 8.94414.48714 2.90943 3.20426 3.90053 5.44776 5.14635 2.68429-1.24051 5.09073-2.708 5.41426-5.14635.39259-2.95901-.43904-5.87121.52692-8.94414-1.96726-.64184-3.9484-.9268-5.94118-.9087zm-.0112 2.48051c.78084.62806 1.46414 1.39292 1.85537 2.66583-.85966.63564-1.42757 1.79102-1.58075 2.96054h.57604c.0546-.25712.12666-.52443.25006-.8127.34999-.81764.90575-1.14633 1.44901-1.17216 1.19518-.0568 2.33718 1.35425 1.14314 2.26841-.053-1.18864-.90843-1.58816-1.64996-.48672-.0477.0708-.0748.13556-.11163.20317h.51352a.36367311.37621 0 0 1 0 .75242h-.73233c.007.5418.41024.87029.8328.87298-.46932 1.24889-1.73132.66229-1.76829-.87298h-.53585c.0243.88707.30384 1.71876.90871 2.25948-.28207.54551-.48514 1.17104-1.14984 1.39989-.52088-.18954-.94079-.723-1.1476-1.39989.60627-.56191.86714-1.38444.87522-2.25948h-.55148c-.037 1.53527-1.29897 2.12187-1.76829.87298.42257-.003.82541-.33118.8328-.87298h-.71446a.36367311.37621 0 1 1 0-.75242h.49565c-.0369-.0676-.064-.13235-.11163-.20317-.74153-1.10144-1.59699-.70192-1.64996.48672-1.19404-.91416-.0521-2.32522 1.14314-2.26841.54326.0258 1.09901.35452 1.44901 1.17216.1234.28827.19546.55558.25006.8127h.57827c-.1719-1.141-.73752-2.27356-1.53609-2.96054.33152-1.03453.89686-1.9556 1.85536-2.66583z" fill="#c43ac4"/><g transform="translate(351.01622 107.04145)"><path d="m8.0097656.5c-1.99278.0181-3.9956356.34068625-6.0097656.9101562.0552827.1450768.0863882.3106503.1289062.4667969 1.9705853-.546859 3.9307216-.8592404 5.8808594-.8769531 1.9538826-.0177467 3.8967804.2612813 5.8261724.8769531.040297-.1558328.065995-.3101562.115234-.4667969-1.96726-.64183995-3.948626-.9282562-5.9414064-.9101562zm-5.5820312 4.3925781c-.00391 1.0641791-.050141 2.1815784-.033203 3.2773438.00174-1.1079901.047933-2.2290551.033203-3.2773438zm11.0410156.3535157c-.01898 1.0801565.04503 2.1489186.0625 3.2167968.0027-1.068934-.05704-2.1386277-.0625-3.2167968z" fill="#fff" opacity=".3"/><path d="m2.1289062 1.3769531c-.0430893.0119578-.0858071.0210174-.1289062.0332031.3186635.8362595.4120765 1.8680574.4277344 2.9824219.0040712-1.1069066-.0602203-2.1393425-.2988282-3.015625zm11.7070318 0c-.29482 1.1400775-.3728 2.2600639-.367188 3.3691407.01928-1.0971265.127121-2.2056478.482422-3.3359376-.0384-.012528-.07682-.020946-.115234-.033203zm-11.4414068 6.2929688c-.0014468.9228113.0257377 1.8342449.1679688 2.6835941.48714 2.90943 3.2037656 3.900664 5.4472656 5.146484 2.6842904-1.24051 5.0905324-2.708134 5.4140624-5.146484.106018-.7990701.120448-1.5942957.107422-2.3906254-.001606.6296741-.023581 1.2587025-.107422 1.890625-.32353 2.4383504-2.729772 3.9059744-5.4140624 5.1464844-2.2435-1.24582-4.9601256-2.237054-5.4472656-5.1464844-.1163908-.6950404-.1563665-1.4330084-.1679688-2.1835937z" fill="#040404" opacity=".2"/></g></g><path d="m8 2.9804688c-.47925.3551149-.861475.7645281-1.1640625 1.2128906s-.5256462.93586-.6914063 1.453125c.399285.34349.7392394.7989094 1.0019532 1.3105468.2627137.5116375.4472531 1.0798907.5332031 1.6503907h-.578125c-.0546-.25712-.1266-.52423-.25-.8125-.175-.40882-.4017487-.6952025-.6523437-.8828125-.2505951-.18761-.5252451-.2761625-.796875-.2890625-.5976201-.028405-1.1811619.3095975-1.4667969.7695312-.1428175.2299669-.2121013.4900471-.1699219.75.0421794.259953.1956306.5195069.4941406.7480469.026485-.59432.2532288-.9907825.5664063-1.1015625s.7132193.0645144 1.0839843.6152344c.04763.07082.0744282.135525.1113282.203125h-.4960938a.36367311.37621 0 0 0 -.015625 0 .36367311.37621 0 0 0 -.0351562.0039062.36367311.37621 0 0 0 -.0371094.0078125.36367311.37621 0 0 0 -.0332031.0097656.36367311.37621 0 0 0 -.0351563.015625.36367311.37621 0 0 0 -.03125.0175782.36367311.37621 0 0 0 -.0292968.0195312.36367311.37621 0 0 0 -.0292969.0253906.36367311.37621 0 0 0 -.0253907.0253907.36367311.37621 0 0 0 -.0234374.0292969.36367311.37621 0 0 0 -.0195313.0332031.36367311.37621 0 0 0 -.015625.0332031.36367311.37621 0 0 0 -.0136719.0332031.36367311.37621 0 0 0 -.0097656.0371094.36367311.37621 0 0 0 -.0078125.0371094.36367311.37621 0 0 0 -.0019531.0371093.36367311.37621 0 0 0 0 .0371094.36367311.37621 0 0 0 .0058594.0371094.36367311.37621 0 0 0 .0078124.0371094.36367311.37621 0 0 0 .0097657.0371094.36367311.37621 0 0 0 .015625.0332031.36367311.37621 0 0 0 .0175781.0332031.36367311.37621 0 0 0 .0214844.0292969.36367311.37621 0 0 0 .0234375.0292969.36367311.37621 0 0 0 .0273437.0253906.36367311.37621 0 0 0 .0292969.0234375.36367311.37621 0 0 0 .03125.0195312.36367311.37621 0 0 0 .03125.015625.36367311.37621 0 0 0 .0351563.0136719.36367311.37621 0 0 0 .0351562.0097656.36367311.37621 0 0 0 .0351562.0039063.36367311.37621 0 0 0 .0371094.0019531h.7148438c-.003695.2709-.1072638.4885269-.2617188.6386719-.154455.1501451-.3609806.2328751-.5722656.2343751.11733.312222.2858172.510779.4707031.607422.184886.096643.3867807.091224.5761719 0 .3787825-.182448.7041563-.712834.7226562-1.480469h.5507813c-.00404.43752-.0708794.862796-.2128906 1.248047-.1420113.385251-.3589744.730764-.6621094 1.011719.20681.67689.6275575 1.21085 1.1484375 1.40039.33235-.114425.5476831-.328853.7167969-.582031.1691137-.253178.2906056-.545604.4316406-.818359-.302435-.27036-.5233438-.613604-.671875-1-.1485312-.386397-.2241781-.816231-.2363281-1.259766h.5351562c.018485.767635.34387 1.298021.7226563 1.480469.1893931.091224.3932367.096643.5781251 0 .184888-.096643.35142-.2952.46875-.607422-.21128-.001345-.417761-.084191-.5722658-.2343751-.154505-.1501838-.2582187-.3677719-.2617187-.6386719h.7324215a.36367311.37621 0 0 0 .015625 0 .36367311.37621 0 0 0 .03711-.0039062.36367311.37621 0 0 0 .035156-.0058594.36367311.37621 0 0 0 .035156-.0117188.36367311.37621 0 0 0 .033203-.0136718.36367311.37621 0 0 0 .03125-.0175782.36367311.37621 0 0 0 .03125-.0214844.36367311.37621 0 0 0 .027344-.0234374.36367311.37621 0 0 0 .025391-.0273438.36367311.37621 0 0 0 .023437-.0292969.36367311.37621 0 0 0 .019531-.03125.36367311.37621 0 0 0 .017579-.0332031.36367311.37621 0 0 0 .013671-.0351562.36367311.37621 0 0 0 .009766-.0351563.36367311.37621 0 0 0 .00586-.0371094.36367311.37621 0 0 0 .001953-.0390625.36367311.37621 0 0 0 0-.0371094.36367311.37621 0 0 0 -.003907-.0371093.36367311.37621 0 0 0 -.007812-.0371094.36367311.37621 0 0 0 -.011719-.0351563.36367311.37621 0 0 0 -.015625-.0351562.36367311.37621 0 0 0 -.017578-.03125.36367311.37621 0 0 0 -.021484-.03125.36367311.37621 0 0 0 -.023438-.0273438.36367311.37621 0 0 0 -.027344-.0273437.36367311.37621 0 0 0 -.029296-.0214844.36367311.37621 0 0 0 -.029297-.0195312.36367311.37621 0 0 0 -.033203-.0175781.36367311.37621 0 0 0 -.035157-.0117188.36367311.37621 0 0 0 -.035156-.0097656.36367311.37621 0 0 0 -.035156-.0058594.36367311.37621 0 0 0 -.03711-.0019531h-.5136715c.03683-.06761.0655812-.132325.1132815-.203125.370765-.55072.768857-.7260144 1.082031-.6152344s.539906.5072425.566406 1.1015625c.29851-.22854.451966-.4880947.494141-.7480469s-.027101-.5200337-.169922-.75c-.285643-.4599325-.869207-.7979312-1.466797-.7695312-.27163.012915-.546279.1014562-.7968749.2890625-.2505962.1876062-.4773487.4739925-.6523437.8828125-.1234.28827-.1954.55538-.25.8125h-.5761719c.07659-.58476.2568081-1.1651975.5253906-1.6796875s.6268106-.96343 1.0566407-1.28125c-.1956151-.636455-.4658694-1.1453825-.7832032-1.5742188-.3173337-.4288362-.6818456-.7777668-1.0722656-1.0917968z" fill="#fff"/></svg>

<?xml version="1.0" encoding="UTF-8" standalone="no"?>
<svg
   xmlns:dc="http://purl.org/dc/elements/1.1/"
   xmlns:cc="http://creativecommons.org/ns#"
   xmlns:rdf="http://www.w3.org/1999/02/22-rdf-syntax-ns#"
   xmlns:svg="http://www.w3.org/2000/svg"
   xmlns="http://www.w3.org/2000/svg"
   xmlns:sodipodi="http://sodipodi.sourceforge.net/DTD/sodipodi-0.dtd"
   xmlns:inkscape="http://www.inkscape.org/namespaces/inkscape"
   height="16"
   width="16"
   version="1.1"
   id="svg12"
   sodipodi:docname="symbols.svg"
   inkscape:version="0.92.4 (5da689c313, 2019-01-14)">
  <metadata
     id="metadata18">
    <rdf:RDF>
      <cc:Work
         rdf:about="">
        <dc:format>image/svg+xml</dc:format>
        <dc:type
           rdf:resource="http://purl.org/dc/dcmitype/StillImage" />
      </cc:Work>
    </rdf:RDF>
  </metadata>
  <defs
     id="defs16" />
  <sodipodi:namedview
     pagecolor="#ffffff"
     bordercolor="#666666"
     borderopacity="1"
     objecttolerance="10"
     gridtolerance="10"
     guidetolerance="10"
     inkscape:pageopacity="0"
     inkscape:pageshadow="2"
     inkscape:window-width="1920"
     inkscape:window-height="1016"
     id="namedview14"
     showgrid="false"
     inkscape:zoom="55.93033"
     inkscape:cx="7.97579"
     inkscape:cy="8.0004028"
     inkscape:window-x="0"
     inkscape:window-y="27"
     inkscape:window-maximized="1"
     inkscape:current-layer="svg12" />
  <g
     transform="translate(-351.01622 -107.04145)"
     id="g10"
     fill-rule="evenodd">
    <path
       d="m359.02662 107.54226c-1.99278.0181-3.99627.33923-6.0104.9087.8681 2.27813.0681 5.99094.56264 8.94414.48714 2.90943 3.20426 3.90053 5.44776 5.14635 2.68429-1.24051 5.09073-2.708 5.41426-5.14635.39259-2.95901-.43904-5.87121.52692-8.94414-1.96726-.64184-3.9484-.9268-5.94118-.9087zm-.0112 2.48051c.78084.62806 1.46414 1.39292 1.85537 2.66583-.85966.63564-1.42757 1.79102-1.58075 2.96054h.57604c.0546-.25712.12666-.52443.25006-.8127.34999-.81764.90575-1.14633 1.44901-1.17216 1.19518-.0568 2.33718 1.35425 1.14314 2.26841-.053-1.18864-.90843-1.58816-1.64996-.48672-.0477.0708-.0748.13556-.11163.20317h.51352a.36367311.37621 0 0 1 0 .75242h-.73233c.007.5418.41024.87029.8328.87298-.46932 1.24889-1.73132.66229-1.76829-.87298h-.53585c.0243.88707.30384 1.71876.90871 2.25948-.28207.54551-.48514 1.17104-1.14984 1.39989-.52088-.18954-.94079-.723-1.1476-1.39989.60627-.56191.86714-1.38444.87522-2.25948h-.55148c-.037 1.53527-1.29897 2.12187-1.76829.87298.42257-.003.82541-.33118.8328-.87298h-.71446a.36367311.37621 0 1 1 0-.75242h.49565c-.0369-.0676-.064-.13235-.11163-.20317-.74153-1.10144-1.59699-.70192-1.64996.48672-1.19404-.91416-.0521-2.32522 1.14314-2.26841.54326.0258 1.09901.35452 1.44901 1.17216.1234.28827.19546.55558.25006.8127h.57827c-.1719-1.141-.73752-2.27356-1.53609-2.96054.33152-1.03453.89686-1.9556 1.85536-2.66583z"
       id="path2"
       fill="#c43ac4" />
    <g
       transform="translate(351.01622 107.04145)"
       id="g8">
      <path
         d="M 8.0097656,0.5 C 6.0169856,0.5181 4.01413,0.84068625 2,1.4101562 2.0552827,1.555233 2.0863882,1.7208065 2.1289062,1.8769531 4.0994915,1.3300941 6.0596278,1.0177127 8.0097656,1 9.9636482,0.9822533 11.906546,1.2612813 13.835938,1.8769531 13.876235,1.7211203 13.901933,1.5667969 13.951172,1.4101562 11.983912,0.76831625 10.002546,0.4819 8.0097656,0.5 Z M 2.4277344,4.8925781 c -0.00391,1.0641791 -0.050141,2.1815784 -0.033203,3.2773438 0.00174,-1.1079901 0.047933,-2.2290551 0.033203,-3.2773438 z M 13.46875,5.2460938 c -0.01898,1.0801565 0.04503,2.1489186 0.0625,3.2167968 0.0027,-1.068934 -0.05704,-2.1386277 -0.0625,-3.2167968 z"
         id="path4"
         inkscape:connector-curvature="0"
         style="opacity:0.3;fill:#ffffff"
         sodipodi:nodetypes="sccsccscccccc" />
      <path
         d="M 2.1289062,1.3769531 C 2.0858169,1.3889109 2.0430991,1.3979705 2,1.4101562 2.3186635,2.2464157 2.4120765,3.2782136 2.4277344,4.3925781 2.4318056,3.2856715 2.3675141,2.2532356 2.1289062,1.3769531 Z m 11.7070318,0 c -0.29482,1.1400775 -0.3728,2.2600639 -0.367188,3.3691407 0.01928,-1.0971265 0.127121,-2.2056478 0.482422,-3.3359376 -0.0384,-0.012528 -0.07682,-0.020946 -0.115234,-0.033203 z M 2.3945312,7.6699219 C 2.3930844,8.5927332 2.4202689,9.5041668 2.5625,10.353516 3.04964,13.262946 5.7662656,14.25418 8.0097656,15.5 10.694056,14.25949 13.100298,12.791866 13.423828,10.353516 13.529846,9.5544459 13.544276,8.7592203 13.53125,7.9628906 13.529644,8.5925647 13.507669,9.2215931 13.423828,9.8535156 13.100298,12.291866 10.694056,13.75949 8.0097656,15 5.7662656,13.75418 3.04964,12.762946 2.5625,9.8535156 2.4461092,9.1584752 2.4061335,8.4205072 2.3945312,7.6699219 Z"
         id="path6"
         inkscape:connector-curvature="0"
         style="opacity:0.2;fill:#040404"
         sodipodi:nodetypes="ccccccccccccccccc" />
    </g>
  </g>
  <path
     style="opacity:1;fill:#ffffff;fill-opacity:1;stroke:none;stroke-width:0.27104306;stroke-linecap:round;stroke-miterlimit:4;stroke-dasharray:none;stroke-opacity:1"
     d="M 8 2.9804688 C 7.52075 3.3355837 7.138525 3.7449969 6.8359375 4.1933594 C 6.53335 4.6417219 6.3102913 5.1292194 6.1445312 5.6464844 C 6.5438162 5.9899744 6.8837706 6.4453938 7.1464844 6.9570312 C 7.4091981 7.4686687 7.5937375 8.0369219 7.6796875 8.6074219 L 7.1015625 8.6074219 C 7.0469625 8.3503019 6.9749625 8.0831919 6.8515625 7.7949219 C 6.6765625 7.3861019 6.4498138 7.0997194 6.1992188 6.9121094 C 5.9486237 6.7244994 5.6739737 6.6359469 5.4023438 6.6230469 C 4.8047237 6.5946419 4.2211819 6.9326444 3.9355469 7.3925781 C 3.7927294 7.622545 3.7234456 7.8826252 3.765625 8.1425781 C 3.8078044 8.4025311 3.9612556 8.662085 4.2597656 8.890625 C 4.2862506 8.296305 4.5129944 7.8998425 4.8261719 7.7890625 C 5.1393494 7.6782825 5.5393912 7.8535769 5.9101562 8.4042969 C 5.9577862 8.4751169 5.9845844 8.5398219 6.0214844 8.6074219 L 5.5253906 8.6074219 A 0.36367311 0.37621 0 0 0 5.5097656 8.6074219 A 0.36367311 0.37621 0 0 0 5.4746094 8.6113281 A 0.36367311 0.37621 0 0 0 5.4375 8.6191406 A 0.36367311 0.37621 0 0 0 5.4042969 8.6289062 A 0.36367311 0.37621 0 0 0 5.3691406 8.6445312 A 0.36367311 0.37621 0 0 0 5.3378906 8.6621094 A 0.36367311 0.37621 0 0 0 5.3085938 8.6816406 A 0.36367311 0.37621 0 0 0 5.2792969 8.7070312 A 0.36367311 0.37621 0 0 0 5.2539062 8.7324219 A 0.36367311 0.37621 0 0 0 5.2304688 8.7617188 A 0.36367311 0.37621 0 0 0 5.2109375 8.7949219 A 0.36367311 0.37621 0 0 0 5.1953125 8.828125 A 0.36367311 0.37621 0 0 0 5.1816406 8.8613281 A 0.36367311 0.37621 0 0 0 5.171875 8.8984375 A 0.36367311 0.37621 0 0 0 5.1640625 8.9355469 A 0.36367311 0.37621 0 0 0 5.1621094 8.9726562 A 0.36367311 0.37621 0 0 0 5.1621094 9.0097656 A 0.36367311 0.37621 0 0 0 5.1679688 9.046875 A 0.36367311 0.37621 0 0 0 5.1757812 9.0839844 A 0.36367311 0.37621 0 0 0 5.1855469 9.1210938 A 0.36367311 0.37621 0 0 0 5.2011719 9.1542969 A 0.36367311 0.37621 0 0 0 5.21875 9.1875 A 0.36367311 0.37621 0 0 0 5.2402344 9.2167969 A 0.36367311 0.37621 0 0 0 5.2636719 9.2460938 A 0.36367311 0.37621 0 0 0 5.2910156 9.2714844 A 0.36367311 0.37621 0 0 0 5.3203125 9.2949219 A 0.36367311 0.37621 0 0 0 5.3515625 9.3144531 A 0.36367311 0.37621 0 0 0 5.3828125 9.3300781 A 0.36367311 0.37621 0 0 0 5.4179688 9.34375 A 0.36367311 0.37621 0 0 0 5.453125 9.3535156 A 0.36367311 0.37621 0 0 0 5.4882812 9.3574219 A 0.36367311 0.37621 0 0 0 5.5253906 9.359375 L 6.2402344 9.359375 C 6.2365394 9.630275 6.1329706 9.8479019 5.9785156 9.9980469 C 5.8240606 10.148192 5.617535 10.230922 5.40625 10.232422 C 5.52358 10.544644 5.6920672 10.743201 5.8769531 10.839844 C 6.0618391 10.936487 6.2637338 10.931068 6.453125 10.839844 C 6.8319075 10.657396 7.1572813 10.12701 7.1757812 9.359375 L 7.7265625 9.359375 C 7.7225225 9.796895 7.6556831 10.222171 7.5136719 10.607422 C 7.3716606 10.992673 7.1546975 11.338186 6.8515625 11.619141 C 7.0583725 12.296031 7.47912 12.829991 8 13.019531 C 8.33235 12.905106 8.5476831 12.690678 8.7167969 12.4375 C 8.8859106 12.184322 9.0074025 11.891896 9.1484375 11.619141 C 8.8460025 11.348781 8.6250937 11.005537 8.4765625 10.619141 C 8.3280313 10.232744 8.2523844 9.80291 8.2402344 9.359375 L 8.7753906 9.359375 C 8.7938756 10.12701 9.1192606 10.657396 9.4980469 10.839844 C 9.68744 10.931068 9.8912836 10.936487 10.076172 10.839844 C 10.26106 10.743201 10.427592 10.544644 10.544922 10.232422 C 10.333642 10.231077 10.127161 10.148231 9.9726562 9.9980469 C 9.8181512 9.8478631 9.7144375 9.630275 9.7109375 9.359375 L 10.443359 9.359375 A 0.36367311 0.37621 0 0 0 10.458984 9.359375 A 0.36367311 0.37621 0 0 0 10.496094 9.3554688 A 0.36367311 0.37621 0 0 0 10.53125 9.3496094 A 0.36367311 0.37621 0 0 0 10.566406 9.3378906 A 0.36367311 0.37621 0 0 0 10.599609 9.3242188 A 0.36367311 0.37621 0 0 0 10.630859 9.3066406 A 0.36367311 0.37621 0 0 0 10.662109 9.2851562 A 0.36367311 0.37621 0 0 0 10.689453 9.2617188 A 0.36367311 0.37621 0 0 0 10.714844 9.234375 A 0.36367311 0.37621 0 0 0 10.738281 9.2050781 A 0.36367311 0.37621 0 0 0 10.757812 9.1738281 A 0.36367311 0.37621 0 0 0 10.775391 9.140625 A 0.36367311 0.37621 0 0 0 10.789062 9.1054688 A 0.36367311 0.37621 0 0 0 10.798828 9.0703125 A 0.36367311 0.37621 0 0 0 10.804688 9.0332031 A 0.36367311 0.37621 0 0 0 10.806641 8.9941406 A 0.36367311 0.37621 0 0 0 10.806641 8.9570312 A 0.36367311 0.37621 0 0 0 10.802734 8.9199219 A 0.36367311 0.37621 0 0 0 10.794922 8.8828125 A 0.36367311 0.37621 0 0 0 10.783203 8.8476562 A 0.36367311 0.37621 0 0 0 10.767578 8.8125 A 0.36367311 0.37621 0 0 0 10.75 8.78125 A 0.36367311 0.37621 0 0 0 10.728516 8.75 A 0.36367311 0.37621 0 0 0 10.705078 8.7226562 A 0.36367311 0.37621 0 0 0 10.677734 8.6953125 A 0.36367311 0.37621 0 0 0 10.648438 8.6738281 A 0.36367311 0.37621 0 0 0 10.619141 8.6542969 A 0.36367311 0.37621 0 0 0 10.585938 8.6367188 A 0.36367311 0.37621 0 0 0 10.550781 8.625 A 0.36367311 0.37621 0 0 0 10.515625 8.6152344 A 0.36367311 0.37621 0 0 0 10.480469 8.609375 A 0.36367311 0.37621 0 0 0 10.443359 8.6074219 L 9.9296875 8.6074219 C 9.9665175 8.5398119 9.9952687 8.4750969 10.042969 8.4042969 C 10.413734 7.8535769 10.811826 7.6782825 11.125 7.7890625 C 11.438174 7.8998425 11.664906 8.296305 11.691406 8.890625 C 11.989916 8.662085 12.143372 8.4025303 12.185547 8.1425781 C 12.227722 7.8826259 12.158446 7.6225444 12.015625 7.3925781 C 11.729982 6.9326456 11.146418 6.5946469 10.548828 6.6230469 C 10.277198 6.6359619 10.002549 6.7245031 9.7519531 6.9121094 C 9.5013569 7.0997156 9.2746044 7.3861019 9.0996094 7.7949219 C 8.9762094 8.0831919 8.9042094 8.3503019 8.8496094 8.6074219 L 8.2734375 8.6074219 C 8.3500275 8.0226619 8.5302456 7.4422244 8.7988281 6.9277344 C 9.0674106 6.4132444 9.4256387 5.9643044 9.8554688 5.6464844 C 9.6598537 5.0100294 9.3895994 4.5011019 9.0722656 4.0722656 C 8.7549319 3.6434294 8.39042 3.2944988 8 2.9804688 z "
     id="path843" />
</svg>
